src/icons/file-toml.svg

<?xml version="1.0" encoding="UTF-8" standalone="no"?>
<svg
   version="1.2"
   viewBox="0 0 16 16"
   width="16"
   height="16"
   id="svg1"
   sodipodi:docname="toml(1).svg"
   inkscape:version="1.4 (e7c3feb100, 2024-10-09)"
   xmlns:inkscape="http://www.inkscape.org/namespaces/inkscape"
   xmlns:sodipodi="http://sodipodi.sourceforge.net/DTD/sodipodi-0.dtd"
   xmlns="http://www.w3.org/2000/svg"
   xmlns:svg="http://www.w3.org/2000/svg">
  <defs
     id="defs1" />
  <sodipodi:namedview
     id="namedview1"
     pagecolor="#505050"
     bordercolor="#eeeeee"
     borderopacity="1"
     inkscape:showpageshadow="0"
     inkscape:pageopacity="0"
     inkscape:pagecheckerboard="0"
     inkscape:deskcolor="#505050"
     inkscape:zoom="36.8125"
     inkscape:cx="8.0135823"
     inkscape:cy="8.0135823"
     inkscape:window-width="1326"
     inkscape:window-height="755"
     inkscape:window-x="20"
     inkscape:window-y="52"
     inkscape:window-maximized="0"
     inkscape:current-layer="svg1" />
  <title
     id="title1">tiny-square-svg</title>
  <style
     id="style1">
		.s0 { fill: #a67cf8 } 
		.s1 { fill: #000000 } 
	</style>
  <g
     id="Layer 1">
    <path
       id="path1"
       class="s0"
       d="M 6.1992188 3 C 5.0992188 3 4.4996094 2.9992187 4.0996094 3.1992188 C 3.6996094 3.3992188 3.3992187 3.6996094 3.1992188 4.0996094 C 2.9992187 4.4996094 3 5.0992188 3 6.1992188 L 3 9.8007812 C 3 10.900781 2.9992187 11.500391 3.1992188 11.900391 C 3.3992187 12.300391 3.6996094 12.600781 4.0996094 12.800781 C 4.4996094 13.000781 5.0992188 13 6.1992188 13 L 9.8007812 13 C 10.900781 13 11.500391 13.000781 11.900391 12.800781 C 12.300391 12.600781 12.600781 12.300391 12.800781 11.900391 C 13.000781 11.500391 13 10.900781 13 9.8007812 L 13 6.1992188 C 13 5.0992188 13.000781 4.4996094 12.800781 4.0996094 C 12.600781 3.6996094 12.300391 3.3992188 11.900391 3.1992188 C 11.500391 2.9992187 10.900781 3 9.8007812 3 L 6.1992188 3 z M 6.3007812 5 L 9.5996094 5 C 10.199609 5 10.5 5.1996094 10.5 5.5996094 C 10.5 5.7996094 10.434115 5.9333333 10.300781 6 C 10.234115 6.0666667 10.067448 6.0996094 9.8007812 6.0996094 L 8.8007812 6.0996094 L 8.8007812 10.199219 C 8.8007812 10.799219 8.5333333 11.099609 8 11.099609 C 7.4666667 11.099609 7.1992188 10.799219 7.1992188 10.199219 L 7.1992188 6.0996094 L 6.3007812 6.0996094 C 6.0341146 6.0996094 5.7996094 6.0666667 5.5996094 6 C 5.466276 5.9333333 5.4003906 5.7996094 5.4003906 5.5996094 C 5.4003906 5.3996094 5.466276 5.2658854 5.5996094 5.1992188 C 5.7996094 5.0658854 6.0341146 5 6.3007812 5 z " />
  </g>
</svg>

<svg xmlns="http://www.w3.org/2000/svg" width="16" height="16" version="1.2"><path d="M6.2 3c-1.1 0-1.7 0-2.1.2q-.6.3-.9.9c-.2.4-.2 1-.2 2.1v3.6c0 1.1 0 1.7.2 2.1q.3.6.9.9c.4.2 1 .2 2.1.2h3.6c1.1 0 1.7 0 2.1-.2q.6-.3.9-.9c.2-.4.2-1 .2-2.1V6.2c0-1.1 0-1.7-.2-2.1q-.3-.6-.9-.9c-.4-.2-1-.2-2.1-.2zm.1 2h3.3q.9 0 .9.6 0 .3-.2.4-.1.1-.5.1h-1v4.1q0 .9-.8.9t-.8-.9V6.1h-.9q-.4 0-.7-.1-.2-.1-.2-.4t.2-.4q.3-.2.7-.2" style="fill:#a67cf8"/></svg>
